src/assets/outline/Thorchain.svg

<?xml version="1.0" encoding="UTF-8"?>
<svg width="24" height="24" viewBox="0 0 24 24" xmlns="http://www.w3.org/2000/svg">
 <path d="m5.6399 22.751c-0.58 0-1.12-0.28-1.48-0.79-0.51-0.72-0.44997-1.65 0.15003-2.29l7.33-7.96-3.5499-3.59c-0.43-0.43-0.61006-1.05-0.49006-1.65s0.53003-1.09 1.09-1.33l8.94-3.75c0.79-0.33 1.66-0.09 2.18 0.59 0.51 0.69 0.49 1.59-0.05 2.26l-6.07 7.41 3.58 3.63c0.43 0.43 0.61 1.05 0.49 1.65s-0.53 1.09-1.09 1.33l-10.3 4.34c-0.24 0.1-0.47998 0.15-0.72998 0.15zm7.05-9.96-7.27 7.9c-0.16 0.17-0.07997 0.33-0.02997 0.42 0.06 0.08 0.18997 0.21 0.39997 0.11l10.3-4.3401c0.14-0.06 0.1799-0.1799 0.1999-0.24 0.01-0.06 0.02-0.1899-0.09-0.2999l-3.51-3.55zm-3.53-5.72 3.47 3.51 5.9601-7.28c0.14-0.17 0.0699-0.33 0.0099-0.41s-0.18-0.2-0.4-0.11l-8.94 3.75c-0.14 0.06-0.18001 0.18-0.20001 0.24s-3e-5 0.19 0.09997 0.3z"/>
</svg>

<svg width="24" height="24" viewBox="0 0 24 24"  xmlns="http://www.w3.org/2000/svg">
<path d="M5.63994 22.7508C5.05994 22.7508 4.5199 22.4708 4.1599 21.9608C3.6499 21.2408 3.70993 20.3108 4.30993 19.6708L11.6399 11.7108L8.08996 8.12075C7.65996 7.69075 7.4799 7.07075 7.5999 6.47075C7.7199 5.87075 8.12993 5.38075 8.68993 5.14075L17.6299 1.39075C18.4199 1.06075 19.2899 1.30075 19.8099 1.98075C20.3199 2.67075 20.2999 3.57075 19.7599 4.24075L13.6899 11.6508L17.2699 15.2808C17.6999 15.7108 17.8799 16.3308 17.7599 16.9308C17.6399 17.5308 17.2299 18.0208 16.6699 18.2608L6.36992 22.6008C6.12992 22.7008 5.88994 22.7508 5.63994 22.7508ZM12.6899 12.7908L5.41991 20.6908C5.25991 20.8608 5.33994 21.0208 5.38994 21.1108C5.44994 21.1908 5.57991 21.3208 5.78991 21.2208L16.09 16.8807C16.23 16.8207 16.2699 16.7008 16.2899 16.6407C16.2999 16.5807 16.3099 16.4508 16.1999 16.3408L12.6899 12.7908ZM9.1599 7.07075L12.6299 10.5808L18.59 3.30075C18.73 3.13075 18.6599 2.97075 18.5999 2.89075C18.5399 2.81075 18.4199 2.69075 18.1999 2.78075L9.25994 6.53075C9.11994 6.59075 9.07993 6.71075 9.05993 6.77075C9.03993 6.83075 9.0599 6.96075 9.1599 7.07075Z" />
</svg>
